X: 2023
T: Donkey Reel
B: steve tunes
M:4/4
R: Reel
Q: 1/4=125
K:D
V:1 
"D"=f2^f2 c2d2|ABAG FED2|"A"E2EF G2E2|"D"D2F2 A4|\
"D"=f2^f2 c2d2|ABAG FED2|
"A"E2EF G2E2 \
|1 "D"D2F2 D4:|2 "D"D2F2 D2 |:\
cd|\
"A"e2ed cAcd|efed cBA2|
"G"B2Bc d2^G2|"A"ABcd e2cd|\
"A"efec efec|efed cBA2|"G"B2Bc dB^GB|"A"A2c2 A2:|
% abcbook-tune_id 62a420d1a0bad048b0424a18


% abcbook-boost 0
% abcbook-tablature 
% abcbook-transpose 
% abcbook-lastupdated 1654958154534
% abcbook-soundfonts 
% abcbook-repeats 3
%%TUNEURL: http://www.leeds.ac.uk/music/Info/RRTuneBk/gettune/00000702.html
%%ID:00000702
% Rhythm Reel
% Titles One title
% Transcriptions Only 1 transcription
% Movement Has lots of stepwise movement
% Movement Has some stepwise movement
% Mode major
% Key D
% Time_signature 4/4
% Has_accompaniment_chords No chords

